X:334
T:Dance from Balou
Z:Jack Campin, http://www.campin.me.uk/
F:Jack Campin's Nine-Note Tunebook
% last edit 03-02-2013
S:http://www.houshamadyan.org
M:5/8
L:1/8
Q:1/4=138
K:APhr
A  (Ad) dd|d (^cd)  (cB)|^c (BA)  AA|A (AB) ^cz |\
                         ^c (BA)  BB|
                                     A  A2   Az::\
A (^FG) AA|A  (AB) (^cB)| d (dc) MBB|A  A2   Az:|

